X:1
T:FUNICULÌ-FUNICULÀ
T:FUNICULÌ-FUNICULÀ
T:CANTO POPOLARE DI PIEDIGROTTA
T:L. DENZA
T:1880, G. RICORDI &amp; C.
T:1880, G. RICORDI &amp; C.
T:1880, G. RICORDI &amp; C.
T:1880, G. RICORDI &amp; C.
T:1880, G. RICORDI &amp; C.
T:1880, G. RICORDI &amp; C.
T:1880, G. RICORDI &amp; C.
T:1880, G. RICORDI &amp; C.
T:1880, G. RICORDI &amp; C.
T:1880, G. RICORDI &amp; C.
T:1880, G. RICORDI &amp; C.
T:1880, G. RICORDI &amp; C.
T:1880, G. RICORDI &amp; C.
C:L. DENZA
Z:1880, G. RICORDI & C.
%%score 1 { ( 2 4 ) | 3 }
L:1/8
Q:1/4=210
M:6/8
K:Eb
V:1 treble nm="Voice"
V:2 treble nm="Piano"
V:4 treble 
V:3 bass 
V:1
 z6 | z6 | z6 | z6 | z6 | z6 | z6 | z6 | z6 | z6 | z6 | z6 | z6 | z6 | z6 |"^CANTO" z6 | z6 | z6 | %18
w: ||||||||||||||||||
 z2 z z2!f! B | e6- | e2 e d2 d | B2 B c2 c | G3 G3- | G2 G !>!F2 E | E6- | %25
w: Ais|se|_ ra, Nan- ni-|nè me ne sa-|gliet- te,.................|* Tu sa- iead-|dò?....|
 E z[K:treble]!f!"^CORO" G !>!F2 E | E6- | E z z z2[K:treble]!f!"^SOLO" B | e6- | e2 e d2 d | %30
w: * Tu sa- ie|addò?....|* Ad-|dò....|* sto co- re|
 B2 B c2 c | G3 G3- | G2 G F2 E | E6- | E z[K:treble]!f!"^CORO" G !>!F2 E | E6- | %36
w: ngra- to chiù di-|spiet- te...........|* Farme * non|pò.......|* Farme * non|pò........|
 E z z z2[K:treble]"^SOLO"!p! G | G6- | G2 G =A2 A | G2 G =A2 A | G3 G3- | G2 D !>!D2 D | D6- | %43
w: * Ad-|dò|* llo fuo- co|co- ce, ma si|fu- je.....|* Te las- sa|stà,.........|
 D z[K:treble]"^CORO" D !>!D2 D | D6- | D z z z2[K:treble]"^SOLO" B | B6- | B2 B c2 c | B2 B c2 c | %49
w: * Te las- sa|stà.............|* E|non......|* te cor- re|appries- so, non te|
 B3 B3- | B2 F F2 F | F6- | F z[K:treble]"^CORO"!f! F F2 F | F6- | F z z z2"^SOLO" z | %55
w: stru- je......|* Solu a guar-|dà...........|* Sulo a guar-|dà..............||
[K:treble] (d3 c) z z | (d3 c) z z | e2 d c2 e | d3- d z z | (d3 c) z z | (d3 c) z z | e2 d c2 e | %62
w: Jam- mo|jam- mo|ncop- pa, jam- mo,|jà......... *|jam- mo|jam- mo|ncop- pa, jam- mo,|
 d z!pp! G"^cres."!<(! G2 G | G2 G G2 G | G2 G G2 G | G2 G G2 G |"^ten." e6!<)! |!f! f2 e c2 e | %68
w: jà......... Fu- ni- cu-|lì fu- ni- cu-|là fu- ni- cu-|lì fu- ni- cu-|là|ncop- pa, jam- mo,|
 B z G G2 G | B2 A G2 F | E z z z2 z |[K:treble] (!>![Bd]3 [Ac]) z z | (!>![Bd]3 [Ac]) z z | %73
w: jà......... fu- ni- cu-|lì fu- ni- cu-|là|Jam- mo|jam- mo|
 [ce]2 [Bd] [Ac]2 [ce] | [Bd]3- [Bd] z z | (!>![Bd]3 [Ac]) z z | (!>![Bd]3 [Ac]) z z | %77
w: ncop- pa, jam- mo,|jà......... *|Jam- mo|jam- mo|
 [ce]2 [Bd] [Ac]2 [ce] | [GB] z!p!"^cres." G!<(! G2 G | G2 G G2 G | G2 G G2 G | G2 G G2 G!<)! | %82
w: ncop- pa, jam- mo|jà fu- ni- cu-|lì fu- ni- cu-|là fu- ni- cu-|lì fu- ni- cu-|
"^ten." [ce]6 |!f! !>![df]2 [Bd] [Ac]2 [ce] | [GB] z [EG] [EG]2 [FA] | [GB]2 [FA] [EG]2 [DF] | %86
w: là|ncop- pa jam- mo-|jà fu- ni- cu-|lì fu- ni- cu-|
 E z[Q:1/4=212] z z2 z |[Q:1/4=216] z6 | z6 |[Q:1/4=218] z2 z z2[K:treble]!f!"^SOLO"[Q:1/4=220] B | %90
w: là|||Nè...|
 e6- | e2 e d2 d | B2 B"_a" c2 c | G3 G3- | G2 G !>!F2 E | E6- | %96
w: jam-|* mo: da la|ter- ra la mon-|ta- gna......|..... No pas- so|nc'è........|
 E z[K:treble]!f!"^CORO" G !>!F2 E | E6- | E z z z2[K:treble]!f!"^SOLO" B | e6- | e2 e d2 d | %101
w: * No pas- so|nc'è;......|..... Se|ve-|* de Fran- cia,|
 B2 B c2 c | G3 G3- | G2"_io" G F2"_a" E | E6- | E z[K:treble]!f!"^CORO""_io" G !>!F2"_a" E | E6- | %107
w: Pro- ce- ta, la|Spa- gna.....|* E ve- co|te.....|* E ve- co|te.....|
 E z z z2[K:treble]"^SOLO"!p! G | G6- | G2 G =A2 A | G2 G =A2 A | G3 G3- | G2 D !>!D2 D | D6- | %114
w: .... Ti-|ra-|* te co lli|fu- ne nnit- to,|nfat- to.....|... Ncie- lo se|va......|
 D z[K:treble]"^CORO" D !>!D2 D | D6- | D z z z2[K:treble]"^SOLO" B | B6- | B2 B c2 c | B2 B c2 c | %120
w: * Ncie- lo se|va;.....|..... Se|va.....|* com m'a llo|vien- to,a l'an- tra-|
 B3 B3- | B2 F F2 F | F6- | F z[K:treble]"^CORO"!f! F F2 F | F6- | F z z z2 z | (d3 c) z z | %127
w: sat- to....|..... Guè, sa- glie,|sà.......|* Guè, sa- glie,|sà.......||Jam- mo|
 (d3 c) z z | e2 d c2 e | d3- d z z | (d3 c) z z | (d3 c) z z | e2 d c2 e | %133
w: jam- mo|ncop- pa, jam- mo,|jà......... *|jam- mo|jam- mo|ncop- pa, jam- mo,|
 d z!pp! G"^cres."!<(! G2 G | G2 G G2 G | G2 G G2 G | G2 G G2 G |"^ten." e6!<)! |!f! f2 e c2 e | %139
w: jà......... Fu- ni- cu-|lì fu- ni- cu-|là fu- ni- cu-|lì fu- ni- cu-|là|ncop- pa, jam- mo,|
 B z G G2 G | B2 A G2 F | E z z z2 z |[K:treble] (!>![Bd]3 [Ac]) z z | (!>![Bd]3 [Ac]) z z | %144
w: jà......... fu- ni- cu-|lì fu- ni- cu-|là|Jam- mo|jam- mo|
 [ce]2 [Bd] [Ac]2 [ce] | [Bd]3- [Bd] z z | (!>![Bd]3 [Ac]) z z | (!>![Bd]3 [Ac]) z z | %148
w: ncop- pa, jam- mo,|jà......... *|Jam- mo|jam- mo|
 [ce]2 [Bd] [Ac]2 [ce] | [GB] z!p!"^cres." G!<(! G2 G | G2 G G2 G | G2 G G2 G | G2 G G2 G!<)! | %153
w: ncop- pa, jam- mo|jà fu- ni- cu-|lì fu- ni- cu-|là fu- ni- cu-|lì fu- ni- cu-|
"^ten." [ce]6 |!f! !>![df]2 [Bd] [Ac]2[K:treble]!f!"^SOLO" [ce] | [GB] z [EG] [EG]2 [FA] | %156
w: là|ncop- pa jam- mo-|jà fu- ni- cu-|
 [GB]2 [FA] [EG]2 [DF] | E z z z2[Q:1/4=222] z | z6 |[Q:1/4=226] z6 | %160
w: lì fu- ni- cu-|là.|||
[Q:1/4=228] z2 z"^SOLO" z2[K:treble]!f![Q:1/4=230] B | e6- | e2 e d2 d | B2 B c2 c | G3 G3- | %165
w: Se|n'è......|* sa- gliu- ta,oie|Nè, se n'è sa-|gliua- ta.....|
 G2 G !>!F2 E | E6- | E z[K:treble]!f!"^CORO" G !>!F2 E | E6- | E z z z2[K:treble]!f!"^SOLO" B | %170
w: .... La ca- pa|gia.......|* La ca- pa|già;..............|..... È|
 e6- | e2 e"_è" d2 d | B2 B"_è" c2 c | G3 G3- | G2 G F2 E | E6- | %176
w: ghiu.......|* ta, pò tor-|na- ta,e pò ve-|nu- ta......|* Stà sem- oe|ccà...............|
 E z[K:treble]!f!"^CORO" G !>!F2 E | E6- | E z z z2[K:treble]"^SOLO"!p! [GB] | [GB]6- | %180
w: * Stà sem- pe|ccà!..............|* La|ca-|
 [GB]2 [GB] =A2 A | G2 G"_-  no" =A2 A | G3 G3- | G2 D !>!D2"_a" D | D6- | %185
w: * pa vo- ta|vo- ta attuor at-|tuor- no......|* At- tuor- no|te.............|
 D z[K:treble]"^CORO" D !>!D2"_a" D | D6- | D z z z2[K:treble]"^SOLO" B | B6- | B2 B c2 c | %190
w: .... A- tutor- no|te...........|* Llo-|co-|* re can- ta|
 B2 B c2 c | B3 B3- | B2 F F2 F | F6- | F z[K:treble]"^CORO"!f! F F2 F | F6- | F z z z2 z | %197
w: sem- pe no ta-|luor- no................|* Sposam- mo, oie|Nè......................|* Sposam- mo, oie|Nè!................||
 (d3 c) z z | (d3 c) z z | e2 d c2 e | d3- d z z | (d3 c) z z | (d3 c) z z | e2 d c2 e | %204
w: Jam- mo|jam- mo|ncop- pa, jam- mo,|jà......... *|jam- mo|jam- mo|ncop- pa, jam- mo,|
 d z!pp! G"^cres."!<(! G2 G | G2 G G2 G | G2 G G2 G | G2 G G2 G |"^ten." e6!<)! |!f! !>!f2 e c2 e | %210
w: jà......... Fu- ni- cu-|lì fu- ni- cu-|là fu- ni- cu-|lì fu- ni- cu-|là|ncop- pa, jam- mo,|
 B z G G2 G | B2 A G2 F | E z z z2 z | (!>![Bd]3 [Ac]) z z | (!>![Bd]3 [Ac]) z z | %215
w: jà......... fu- ni- cu-|lì fu- ni- cu-|là|Jam- mo|jam- mo|
 [ce]2 [Bd] [Ac]2 [ce] | [Bd]3- [Bd] z z | (!>![Bd]3 [Ac]) z z | (!>![Bd]3 [Ac]) z z | %219
w: ncop- pa, jam- mo,|jà......... *|Jam- mo|jam- mo|
 [ce]2 [Bd] [Ac]2 [ce] | [GB] z!p!"^cres." G!<(! G2 G | G2 G G2 G | G2 G G2 G | G2 G G2 G!<)! | %224
w: ncop- pa, jam- mo|jà fu- ni- cu-|lì fu- ni- cu-|là fu- ni- cu-|lì fu- ni- cu-|
"^ten." [ce]6 |!f! !>![df]2 [Bd] [Ac]2 [ce] | [GB] z [EG] [EG]2 [FA] | [GB]2 [FA] [EG]2 [DF] | %228
w: là|ncop- pa jam- mo-|jà fu- ni- cu-|lì fu- ni- cu-|
 E z z z2 z |] %229
w: là|
V:2
!p!"_grazioso""_ALL.   BRILLANTE""_tto" ((!>![Bd]3 [Ac])) z z | ((!>![Bd]3 [Ac])) z z | %2
 .[ce] z .[Bd] .[Ac] z .[ce] | [Bd]3- [Bd] z z | ((!>![Bd]3 [Ac])) z z | ((!>![Bd]3 [Ac])) z z | %6
 .[ce] z .[Bd] .[Ac] z .[ce] | .[GB] z!pp! .[EG] .[EG] z .[EG] | !>![FG] z [FG] [FG] z [FG] | %9
 !>![EG] z [EG] [EG] z [EG] | !>![DFG] z [DFG] [DFG] z [DFG] | !>![EGe]6 | %12
!f! .[df] z .[ce] .[Ac] z .[ce] | .[GB] z .[EG] .[EG] z .[FA] | [GB] z [FA] [EG] z [B,F] | %15
 [G,E] z!pp! [G,B,E] [G,B,E] z [G,B,E] | [G,B,E] z [G,B,E] [G,B,E] z [G,B,E] | %17
 [G,B,E] z [G,B,E] [G,B,E] z [G,B,E] | [G,B,E] z [G,B,E] [G,B,E] z !>![G,B,E] | %19
 !>![G,B,E] z!p! [G,B,E] [G,B,E] z [G,B,E] | [G,B,E] z [G,B,E] [G,B,E] z [G,B,E] | %21
 [G,B,E] z [G,B,E] [G,B,E] z [G,B,E] | [G,B,E] z [G,B,E] [G,B,E] z [G,B,E] | %23
 [G,B,E] z [G,B,E] !>![A,B,D] z [G,B,E] | [G,B,E] z [G,B,E] [G,B,E] z [G,B,E] | %25
 [G,B,E] z!f! [B,EG] !>![A,DF]2 [G,B,E] | E6- | E z [G,B,E] [G,B,E] z !>![G,B,E] | %28
 !>![G,B,E] z!p! [G,B,E] [G,B,E] z [G,B,E] | [G,B,E] z [G,B,E] [G,B,E] z [G,B,E] | %30
 [G,B,E] z [G,B,E] [G,B,E] z [G,B,E] | [G,B,E] z [G,B,E] [G,B,E] z [G,B,E] | %32
 [G,B,E] z [G,B,E] !>![A,B,D] z [G,B,E] | [G,B,E] z [G,B,E] [G,B,E] z [G,B,E] | %34
 [G,B,E] z!f! [B,EG] !>![A,DF]2 [G,B,E] | E6- | E z!p! [G,B,E] [G,B,E] z !>![G,B,E] | %37
 [G,B,D] z [G,B,D] [G,B,D] z [G,B,D] | [G,B,D] z [G,B,D] [^F,CD] z [F,CD] | %39
 [G,B,D] z [G,B,D] [^F,CD] z [F,CD] | [G,B,D] z [G,B,D] [G,B,D] z [G,B,D] | %41
 [G,B,D] z [G,B,D] !>![^F,CD] z [F,CD] | [G,B,D] z [G,B,D] [G,B,D] z [G,B,D] | %43
 [G,B,D] z!f! [G,B,D] !>![^F,CD]2 [F,CD] | D6- | D z [G,B,D] [G,B,D] z [G,B,D] | %46
 [B,D=F] z [B,DF] [B,DF] z [B,DF] | [B,DF] z [B,DF] [=A,EF] z [A,EF] | %48
 [B,DF] z [B,DF] [=A,EF] z [A,EF] | [B,DF] z [B,DF] [B,DF] z [B,DF] | %50
 [B,DF] z [B,DF] !>![=A,EF] z [A,EF] | [B,DF] z [B,DF] [B,DF] z [B,DF] | %52
 [B,DF] z!f! [B,DF] !>![=A,EF]2 [A,EF] | F6- | F z [B,DF] [B,DF] z [B,DF] | %55
!p! ((!>![Bd]3 [Ac])) z z | ((!>![Bd]3 [Ac])) z z | [ce] z [Bd] [Ac] z [ce] | [Bd]3- [Bd] z z | %59
 ((!>![Bd]3 [Ac])) z z | ((!>![Bd]3 [Ac])) z z | .[ce] z .[Bd] .[Ac] z .[ce] | %62
 .[GB] z!pp! .[EG]!<(! .[EG] z .[EG] | .[FG] z .[FG] .[FG] z .[FG] | .[EG] z .[EG] .[EG] z .[EG] | %65
 [DFG] z [DFG] [DFG] z [DFG] |"_col canto" !>![EGe]6!<)! |!f! .[df] z .[ce] .[Ac] z .[ce] | %68
 .[GB] z .[EG] .[EG] z .[FA] | [GB] z [FA] [EG] z [B,F] | [G,E] z [G,B,E] [G,B,E] z [G,B,E] | %71
!f! (((!>![DBd]3 [CAc]))) z z | (((((!>![DBd]3 [CAc]))))) z z | [Ece]2 [DBd] [CAc]2 [Ece] | %74
 [DBd]3- [DBd] z z | (((!>![DBd]3 [CAc]))) z z | (((((!>![DBd]3 [CAc]))))) z z | %77
 [Ece]2 [DBd] [CAc]2 [Ece] | [B,GB] z!p!"_cres." [EG]!<(! [EG] z [EG] | [FG] z [FG] [FG] z [FG] | %80
 [EG] z [EG] [EG] z [EG] | [DFG] z [DFG] [DFG] z [DFG]!<)! | !>![Ece]6 | %83
!f!!f! !>![Fdf] z [Ece] [CAc] z [Ece] | [B,GB] z [EG] [EG] z [FA] | [GB] z [FA] [EG] z [B,F] | %86
 [G,B,E] z!p! [G,B,E] [G,B,E] z [G,B,E] | [G,B,E] z [G,B,E] [G,B,E] z [G,B,E] | %88
 [G,B,E] z [G,B,E] [G,B,E] z [G,B,E] | [G,B,E] z [G,B,E] [G,B,E] z !>![G,B,E] | %90
 !>![G,B,E] z!p! [G,B,E] [G,B,E] z [G,B,E] | [G,B,E] z [G,B,E] [G,B,E] z [G,B,E] | %92
 [G,B,E] z [G,B,E] [G,B,E] z [G,B,E] | [G,B,E] z [G,B,E] [G,B,E] z [G,B,E] | %94
 [G,B,E] z [G,B,E] !>![A,B,D] z [G,B,E] | [G,B,E] z [G,B,E] [G,B,E] z [G,B,E] | %96
 [G,B,E] z!f! [B,EG] !>![A,DF]2 [G,B,E] | E6- | E z [G,B,E] [G,B,E] z !>![G,B,E] | %99
 !>![G,B,E] z!p! [G,B,E] [G,B,E] z [G,B,E] | [G,B,E] z [G,B,E] [G,B,E] z [G,B,E] | %101
 [G,B,E] z [G,B,E] [G,B,E] z [G,B,E] | [G,B,E] z [G,B,E] [G,B,E] z [G,B,E] | %103
 [G,B,E] z [G,B,E] !>![A,B,D] z [G,B,E] | [G,B,E] z [G,B,E] [G,B,E] z [G,B,E] | %105
 [G,B,E] z!f! [B,EG] !>![A,DF]2 [G,B,E] | E6- | E z!p! [G,B,E] [G,B,E] z !>![G,B,E] | %108
 [G,B,D] z [G,B,D] [G,B,D] z [G,B,D] | [G,B,D] z [G,B,D] [^F,CD] z [F,CD] | %110
 [G,B,D] z [G,B,D] [^F,CD] z [F,CD] | [G,B,D] z [G,B,D] [G,B,D] z [G,B,D] | %112
 [G,B,D] z [G,B,D] !>![^F,CD] z [F,CD] | [G,B,D] z [G,B,D] [G,B,D] z [G,B,D] | %114
 [G,B,D] z!f! [G,B,D] !>![^F,CD]2 [F,CD] | D6- | D z [G,B,D] [G,B,D] z [G,B,D] | %117
 [B,D=F] z [B,DF] [B,DF] z [B,DF] | [B,DF] z [B,DF] [=A,EF] z [A,EF] | %119
 [B,DF] z [B,DF] [=A,EF] z [A,EF] | [B,DF] z [B,DF] [B,DF] z [B,DF] | %121
 [B,DF] z [B,DF] !>![=A,EF] z [A,EF] | [B,DF] z [B,DF] [B,DF] z [B,DF] | %123
 [B,DF] z!f! [B,DF] !>![=A,EF]2 [A,EF] | F6- | F z [B,DF] [B,DF] z [B,DF] | %126
!p! ((!>![Bd]3 [Ac])) z z | ((!>![Bd]3 [Ac])) z z | [ce] z [Bd] [Ac] z [ce] | [Bd]3- [Bd] z z | %130
 ((!>![Bd]3 [Ac])) z z | ((!>![Bd]3 [Ac])) z z | .[ce] z .[Bd] .[Ac] z .[ce] | %133
 .[GB] z!pp! .[EG]!<(! .[EG] z .[EG] | .[FG] z .[FG] .[FG] z .[FG] | .[EG] z .[EG] .[EG] z .[EG] | %136
 [DFG] z [DFG] [DFG] z [DFG] |"_col canto" !>![EGe]6!<)! |!f! !>![df] z [ce] [Ac] z [ce] | %139
 [GB] z [EG] [EG] z [FA] | [GB] z [FA] [EG] z [B,F] | [G,E] z [G,B,E] [G,B,E] z [G,B,E] | %142
!f! (((!>![DBd]3 [CAc]))) z z | (((((!>![DBd]3 [CAc]))))) z z | [Ece]2 [DBd] [CAc]2 [Ece] | %145
 [DBd]3- [DBd] z z | (((!>![DBd]3 [CAc]))) z z | (((((!>![DBd]3 [CAc]))))) z z | %148
 [Ece]2 [DBd] [CAc]2 [Ece] | [B,GB] z!p!"_cres." [EG]!<(! [EG] z [EG] | [FG] z [FG] [FG] z [FG] | %151
 [EG] z [EG] [EG] z [EG] | [DFG] z [DFG] [DFG] z [DFG]!<)! | !>![Ece]6 | %154
!f! !>![Fdf] z [Ece] [CAc] z [Ece] | [B,GB] z!p! [EG] [EG] z [FA] | [GB] z [FA] [EG] z [B,F] | %157
 [G,B,E] z!p! [G,B,E] [G,B,E] z [G,B,E] | [G,B,E] z [G,B,E] [G,B,E] z [G,B,E] | %159
 [G,B,E] z [G,B,E] [G,B,E] z [G,B,E] | [G,B,E] z [G,B,E] [G,B,E] z [G,B,E] | %161
 !>![G,B,E] z!p! [G,B,E] [G,B,E] z [G,B,E] | [G,B,E] z [G,B,E] [G,B,E] z [G,B,E] | %163
 [G,B,E] z [G,B,E] [G,B,E] z [G,B,E] | [G,B,E] z [G,B,E] [G,B,E] z [G,B,E] | %165
 [G,B,E] z [G,B,E] !>![A,B,D] z [G,B,E] | [G,B,E] z [G,B,E] [G,B,E] z [G,B,E] | %167
 [G,B,E] z!f! [B,EG] !>![A,DF]2 [G,B,E] | E6- | E z [G,B,E] [G,B,E] z !>![G,B,E] | %170
 !>![G,B,E] z!p! [G,B,E] [G,B,E] z [G,B,E] | [G,B,E] z [G,B,E] [G,B,E] z [G,B,E] | %172
 [G,B,E] z [G,B,E] [G,B,E] z [G,B,E] | [G,B,E] z [G,B,E] [G,B,E] z [G,B,E] | %174
 [G,B,E] z [G,B,E] !>![A,B,D] z [G,B,E] | [G,B,E] z [G,B,E] [G,B,E] z [G,B,E] | %176
 [G,B,E] z!f! [B,EG] !>![A,DF]2 [G,B,E] | E6- | E z!p! [G,B,E] [G,B,E] z !>![G,B,E] | %179
 [G,B,D] z [G,B,D] [G,B,D] z [G,B,D] | [G,B,D] z [G,B,D] [^F,CD] z [F,CD] | %181
 [G,B,D] z [G,B,D] [^F,CD] z [F,CD] | [G,B,D] z [G,B,D] [G,B,D] z [G,B,D] | %183
 [G,B,D] z [G,B,D] !>![^F,CD] z [F,CD] | [G,B,D] z [G,B,D] [G,B,D] z [G,B,D] | %185
 [G,B,D] z!f! [G,B,D] !>![^F,CD]2 [F,CD] | D6- | D z [G,B,D] [G,B,D] z [G,B,D] | %188
 [B,D=F] z [B,DF] [B,DF] z [B,DF] | [B,DF] z [B,DF] [=A,EF] z [A,EF] | %190
 [B,DF] z [B,DF] [=A,EF] z [A,EF] | [B,DF] z [B,DF] [B,DF] z [B,DF] | %192
 [B,DF] z [B,DF] !>![=A,EF] z [A,EF] | [B,DF] z [B,DF] [B,DF] z [B,DF] | %194
 [B,DF] z!f! [B,DF] !>![=A,EF]2 [A,EF] | F6- | F z [B,DF] [B,DF] z [B,DF] | %197
!p! ((!>![Bd]3 [Ac])) z z | ((!>![Bd]3 [Ac])) z z | [ce] z [Bd] [Ac] z [ce] | [Bd]3- [Bd] z z | %201
 ((!>![Bd]3 [Ac])) z z | ((!>![Bd]3 [Ac])) z z | .[ce] z .[Bd] .[Ac] z .[ce] | %204
 .[GB] z!pp! .[EG]!<(! .[EG] z .[EG] | .[FG] z .[FG] .[FG] z .[FG] | .[EG] z .[EG] .[EG] z .[EG] | %207
 .[DFG] z .[DFG] .[DFG] z .[DFG] |"_col canto" !>![EGe]6!<)! |!f! .[df] z .[ce] .[Ac] z .[ce] | %210
 .[GB] z .[EG] .[EG] z .[FA] | [GB] z [FA] [EG] z [B,F] | [G,E] z [G,B,E] [G,B,E] z [G,B,E] | %213
!f! (((!>![DBd]3 [CAc]))) z z | (((((!>![DBd]3 [CAc]))))) z z | [Ece]2 [DBd] [CAc]2 [Ece] | %216
 [DBd]3- [DBd] z z | (((!>![DBd]3 [CAc]))) z z | (((((!>![DBd]3 [CAc]))))) z z | %219
 [Ece]2 [DBd] [CAc]2 [Ece] | [B,GB] z!p!"_cres." [EG]!<(! [EG] z [EG] | [FG] z [FG] [FG] z [FG] | %222
 [EG] z [EG] [EG] z [EG] | [DFG] z [DFG] [DFG] z [DFG]!<)! |"_col canto" !>![Ece]6 | %225
!f!!f! !>![Fdf] z [Ece] [CAc] z [Ece] | [B,GB] z [EG] [EG] z [FA] | [GB] z [FA] [EG] z [B,F] | %228
 [G,B,E] z z !>![EGBe] z z |] %229
V:3
 B,, z [A,B,] [A,B,] z [A,B,] | F, z [A,B,] [A,B,] z [A,B,] | B,, z [A,B,] [A,B,] z [A,B,] | %3
 F, z [A,B,] [A,B,] z [A,B,] | F, z [A,B,] [A,B,] z [A,B,] | F, z [A,B,] [A,B,] z [A,B,] | %6
 B,, z [A,B,] [A,B,] z [A,B,] | [E,B,] z .[E,B,]"^cres." .[E,B,] z .[E,B,] | %8
 !>![D,=B,] z [D,B,] [D,B,] z [D,B,] | !>![C,C] z [C,C] [C,C] z [C,C] | %10
 !>![=B,,=B,] z [B,,B,] [B,,B,] z [B,,B,] | !>![C,C]6 | .[A,,A,] z .[A,,A,] .[A,,A,] z .[A,,A,] | %13
 [_B,,_B,] z [B,,B,] [B,,B,] z [B,,B,] | [B,,B,] z [B,,,B,,] [B,,,B,,] z [B,,,B,,] | %15
 [E,,B,,] z [E,,B,,] [E,,B,,] z [E,,B,,] | [E,,B,,] z [E,,B,,] [E,,B,,] z [E,,B,,] | %17
 [E,,B,,] z [E,,B,,] [E,,B,,] z [E,,B,,] | [E,,B,,] z [E,,B,,] [E,,B,,] z !>![E,,B,,] | %19
 !>![E,,B,,] z [E,,B,,] [E,,B,,] z [E,,B,,] | [E,,B,,] z [E,,B,,] [E,,B,,] z [E,,B,,] | %21
 [E,,B,,] z [E,,B,,] [E,,B,,] z [E,,B,,] | [E,,B,,] z [E,,B,,] [E,,B,,] z [E,,B,,] | %23
 [E,,B,,] z [E,,B,,] !>![B,,,B,,] z [E,,B,,] | [E,,B,,] z [E,,B,,] [E,,B,,] z [E,,B,,] | %25
 [E,,B,,] z [E,,B,,] !>![B,,,B,,]2 [E,,B,,] | [E,,B,,] z [E,,B,,] [E,,B,,] z [E,,B,,] | %27
 [E,,B,,] z [E,,B,,] [E,,B,,] z !>![E,,B,,] | !>![E,,B,,] z [E,,B,,] [E,,B,,] z [E,,B,,] | %29
 [E,,B,,] z [E,,B,,] [E,,B,,] z [E,,B,,] | [E,,B,,] z [E,,B,,] [E,,B,,] z [E,,B,,] | %31
 [E,,B,,] z [E,,B,,] [E,,B,,] z [E,,B,,] | [E,,B,,] z [E,,B,,] !>![B,,,B,,] z [E,,B,,] | %33
 [E,,B,,] z [E,,B,,] [E,,B,,] z [E,,B,,] | [E,,B,,] z [E,,B,,] !>![B,,,B,,]2 [E,,B,,] | %35
 [E,,B,,] z [E,,B,,] [E,,B,,] z [E,,B,,] | [E,,B,,] z [E,,B,,] [E,,B,,] z !>![E,,B,,] | %37
 [D,,D,] z [D,,D,] [D,,D,] z [D,,D,] | [D,,D,] z [D,,D,] [D,,D,] z [D,,D,] | %39
 [G,,D,] z [G,,D,] [D,,D,] z [D,,D,] | [G,,D,] z [G,,D,] [G,,D,] z [G,,D,] | %41
 [G,,D,] z [G,,D,] !>![D,,D,] z [D,,D,] | [G,,D,] z [G,,D,] [G,,D,] z [G,,D,] | %43
 [G,,D,] z [G,,D,] !>![D,,D,]2 [D,,D,] | [G,,D,] z [G,,D,] [G,,D,] z [G,,D,] | %45
 [G,,D,] z [G,,D,] [G,,D,] z [G,,D,] | [=F,,=F,] z [F,,F,] [F,,F,] z [F,,F,] | %47
 [F,,F,] z [F,,F,] [F,,F,] z [F,,F,] | [B,,F,] z [B,,F,] [F,,F,] z [F,,F,] | %49
 [B,,F,] z [B,,F,] [B,,F,] z [B,,F,] | [B,,F,] z [B,,F,] !>![F,,F,] z [F,,F,] | %51
 [B,,F,] z [B,,F,] [B,,F,] z [B,,F,] | [B,,F,] z [B,,F,] !>![F,,F,]2 [F,,F,] | %53
 [B,,F,] z [B,,F,] [B,,F,] z [B,,F,] | [B,,F,] z [B,,F,] [B,,F,] z [B,,F,] | %55
 F, z [A,B,] [A,B,] z [A,B,] | F, z [A,B,] [A,B,] z [A,B,] | B,, z [A,B,] [A,B,] z [A,B,] | %58
 F, z [A,B,] [A,B,] z [A,B,] | F, z [A,B,] [A,B,] z [A,B,] | F, z [A,B,] [A,B,] z [A,B,] | %61
 B,, z [A,B,] [A,B,] z [A,B,] | [E,B,] z .[E,B,]"^cres." .[E,B,] z .[E,B,] | %63
 .[D,=B,] z .[D,B,] .[D,B,] z .[D,B,] | .[C,C] z .[C,C] .[C,C] z .[C,C] | %65
 [=B,,=B,] z [B,,B,] [B,,B,] z [B,,B,] | !>![C,C]6 | .[A,,A,] z .[A,,A,] .[A,,A,] z .[A,,A,] | %68
 [_B,,_B,] z [B,,B,] [B,,B,] z [B,,B,] | [B,,B,] z [B,,,B,,] [B,,,B,,] z [B,,,B,,] | %70
 [E,,B,,] z [E,,B,,] [E,,B,,] z [E,,B,,] | [B,,,B,,] z [F,A,B,] [F,A,B,] z [F,A,B,] | %72
 [F,,F,] z [F,A,B,] [F,A,B,] z [F,A,B,] | [B,,,B,,] z [F,A,B,] [F,A,B,] z [F,A,B,] | %74
 [F,,F,] z [F,A,B,] [F,A,B,] z [F,A,B,] | [B,,,B,,] z [F,A,B,] [F,A,B,] z [F,A,B,] | %76
 [F,,F,] z [F,A,B,] [F,A,B,] z [F,A,B,] | [B,,,B,,] z [F,A,B,] [F,A,B,] z [F,A,B,] | %78
 [E,,E,] z [E,B,] [E,B,] z [E,B,] | [D,=B,] z [D,B,] [D,B,] z [D,B,] | %80
 [C,C] z [C,C] [C,C] z [C,C] | [=B,,=B,] z [B,,B,] [B,,B,] z [B,,B,] | !>![C,,C,]6 | %83
 [A,,,A,,] z [A,,,A,,] [A,,,A,,] z [A,,,A,,] | [_B,,,_B,,] z [B,,B,] [B,,B,] z [B,,B,] | %85
 [B,,B,] z [B,,,B,,] [B,,,B,,] z [B,,,B,,] | [E,,E,] z [E,,B,,] [E,,B,,] z [E,,B,,] | %87
 [E,,B,,] z [E,,B,,] [E,,B,,] z [E,,B,,] | [E,,B,,] z [E,,B,,] [E,,B,,] z [E,,B,,] | %89
 [E,,B,,] z [E,,B,,] [E,,B,,] z !>![E,,B,,] | !>![E,,B,,] z [E,,B,,] [E,,B,,] z [E,,B,,] | %91
 [E,,B,,] z [E,,B,,] [E,,B,,] z [E,,B,,] | [E,,B,,] z [E,,B,,] [E,,B,,] z [E,,B,,] | %93
 [E,,B,,] z [E,,B,,] [E,,B,,] z [E,,B,,] | [E,,B,,] z [E,,B,,] !>![B,,,B,,] z [E,,B,,] | %95
 [E,,B,,] z [E,,B,,] [E,,B,,] z [E,,B,,] | [E,,B,,] z [E,,B,,] !>![B,,,B,,]2 [E,,B,,] | %97
 [E,,B,,] z [E,,B,,] [E,,B,,] z [E,,B,,] | [E,,B,,] z [E,,B,,] [E,,B,,] z !>![E,,B,,] | %99
 !>![E,,B,,] z [E,,B,,] [E,,B,,] z [E,,B,,] | [E,,B,,] z [E,,B,,] [E,,B,,] z [E,,B,,] | %101
 [E,,B,,] z [E,,B,,] [E,,B,,] z [E,,B,,] | [E,,B,,] z [E,,B,,] [E,,B,,] z [E,,B,,] | %103
 [E,,B,,] z [E,,B,,] !>![B,,,B,,] z [E,,B,,] | [E,,B,,] z [E,,B,,] [E,,B,,] z [E,,B,,] | %105
 [E,,B,,] z [E,,B,,] !>![B,,,B,,]2 [E,,B,,] | [E,,B,,] z [E,,B,,] [E,,B,,] z [E,,B,,] | %107
 [E,,B,,] z [E,,B,,] [E,,B,,] z !>![E,,B,,] | [D,,D,] z [D,,D,] [D,,D,] z [D,,D,] | %109
 [D,,D,] z [D,,D,] [D,,D,] z [D,,D,] | [G,,D,] z [G,,D,] [D,,D,] z [D,,D,] | %111
 [G,,D,] z [G,,D,] [G,,D,] z [G,,D,] | [G,,D,] z [G,,D,] !>![D,,D,] z [D,,D,] | %113
 [G,,D,] z [G,,D,] [G,,D,] z [G,,D,] | [G,,D,] z [G,,D,] !>![D,,D,]2 [D,,D,] | %115
 [G,,D,] z [G,,D,] [G,,D,] z [G,,D,] | [G,,D,] z [G,,D,] [G,,D,] z [G,,D,] | %117
 [=F,,=F,] z [F,,F,] [F,,F,] z [F,,F,] | [F,,F,] z [F,,F,] [F,,F,] z [F,,F,] | %119
 [B,,F,] z [B,,F,] [F,,F,] z [F,,F,] | [B,,F,] z [B,,F,] [B,,F,] z [B,,F,] | %121
 [B,,F,] z [B,,F,] !>![F,,F,] z [F,,F,] | [B,,F,] z [B,,F,] [B,,F,] z [B,,F,] | %123
 [B,,F,] z [B,,F,] !>![F,,F,]2 [F,,F,] | [B,,F,] z [B,,F,] [B,,F,] z [B,,F,] | %125
 [B,,F,] z [B,,F,] [B,,F,] z [B,,F,] | F, z [A,B,] [A,B,] z [A,B,] | F, z [A,B,] [A,B,] z [A,B,] | %128
 B,, z [A,B,] [A,B,] z [A,B,] | F, z [A,B,] [A,B,] z [A,B,] | F, z [A,B,] [A,B,] z [A,B,] | %131
 F, z [A,B,] [A,B,] z [A,B,] | B,, z [A,B,] [A,B,] z [A,B,] | %133
 [E,B,] z .[E,B,]"^cres." .[E,B,] z .[E,B,] | .[D,=B,] z .[D,B,] .[D,B,] z .[D,B,] | %135
 .[C,C] z .[C,C] .[C,C] z .[C,C] | [=B,,=B,] z [B,,B,] [B,,B,] z [B,,B,] | !>![C,C]6 | %138
 !>![A,,A,] z [A,,A,] [A,,A,] z [A,,A,] | [_B,,_B,] z [B,,B,] [B,,B,] z [B,,B,] | %140
 [B,,B,] z [B,,,B,,] [B,,,B,,] z [B,,,B,,] | [E,,B,,] z [E,,B,,] [E,,B,,] z [E,,B,,] | %142
 [B,,,B,,] z [F,A,B,] [F,A,B,] z [F,A,B,] | [F,,F,] z [F,A,B,] [F,A,B,] z [F,A,B,] | %144
 [B,,,B,,] z [F,A,B,] [F,A,B,] z [F,A,B,] | [F,,F,] z [F,A,B,] [F,A,B,] z [F,A,B,] | %146
 [B,,,B,,] z [F,A,B,] [F,A,B,] z [F,A,B,] | [F,,F,] z [F,A,B,] [F,A,B,] z [F,A,B,] | %148
 [B,,,B,,] z [F,A,B,] [F,A,B,] z [F,A,B,] | [E,,E,] z [E,B,] [E,B,] z [E,B,] | %150
 [D,=B,] z [D,B,] [D,B,] z [D,B,] | [C,C] z [C,C] [C,C] z [C,C] | %152
 [=B,,=B,] z [B,,B,] [B,,B,] z [B,,B,] | !>![C,,C,]6 | %154
 [A,,,A,,] z [A,,,A,,] [A,,,A,,] z [A,,,A,,] | [_B,,,_B,,] z [B,,B,] [B,,B,] z [B,,B,] | %156
 [B,,B,] z [B,,,B,,] [B,,,B,,] z [B,,,B,,] | [E,,E,] z [E,,B,,] [E,,B,,] z [E,,B,,] | %158
 [E,,B,,] z [E,,B,,] [E,,B,,] z [E,,B,,] | [E,,B,,] z [E,,B,,] [E,,B,,] z [E,,B,,] | %160
 [E,,B,,] z [E,,B,,] [E,,B,,] z [E,,B,,] | !>![E,,B,,] z [E,,B,,] [E,,B,,] z [E,,B,,] | %162
 [E,,B,,] z [E,,B,,] [E,,B,,] z [E,,B,,] | [E,,B,,] z [E,,B,,] [E,,B,,] z [E,,B,,] | %164
 [E,,B,,] z [E,,B,,] [E,,B,,] z [E,,B,,] | [E,,B,,] z [E,,B,,] !>![B,,,B,,] z [E,,B,,] | %166
 [E,,B,,] z [E,,B,,] [E,,B,,] z [E,,B,,] | [E,,B,,] z [E,,B,,] !>![B,,,B,,]2 [E,,B,,] | %168
 [E,,B,,] z [E,,B,,] [E,,B,,] z [E,,B,,] | [E,,B,,] z [E,,B,,] [E,,B,,] z !>![E,,B,,] | %170
 !>![E,,B,,] z [E,,B,,] [E,,B,,] z [E,,B,,] | [E,,B,,] z [E,,B,,] [E,,B,,] z [E,,B,,] | %172
 [E,,B,,] z [E,,B,,] [E,,B,,] z [E,,B,,] | [E,,B,,] z [E,,B,,] [E,,B,,] z [E,,B,,] | %174
 [E,,B,,] z [E,,B,,] !>![B,,,B,,] z [E,,B,,] | [E,,B,,] z [E,,B,,] [E,,B,,] z [E,,B,,] | %176
 [E,,B,,] z [E,,B,,] !>![B,,,B,,]2 [E,,B,,] | [E,,B,,] z [E,,B,,] [E,,B,,] z [E,,B,,] | %178
 [E,,B,,] z [E,,B,,] [E,,B,,] z !>![E,,B,,] | [D,,D,] z [D,,D,] [D,,D,] z [D,,D,] | %180
 [D,,D,] z [D,,D,] [D,,D,] z [D,,D,] | [G,,D,] z [G,,D,] [D,,D,] z [D,,D,] | %182
 [G,,D,] z [G,,D,] [G,,D,] z [G,,D,] | [G,,D,] z [G,,D,] !>![D,,D,] z [D,,D,] | %184
 [G,,D,] z [G,,D,] [G,,D,] z [G,,D,] | [G,,D,] z [G,,D,] !>![D,,D,]2 [D,,D,] | %186
 [G,,D,] z [G,,D,] [G,,D,] z [G,,D,] | [G,,D,] z [G,,D,] [G,,D,] z [G,,D,] | %188
 [=F,,=F,] z [F,,F,] [F,,F,] z [F,,F,] | [F,,F,] z [F,,F,] [F,,F,] z [F,,F,] | %190
 [B,,F,] z [B,,F,] [F,,F,] z [F,,F,] | [B,,F,] z [B,,F,] [B,,F,] z [B,,F,] | %192
 [B,,F,] z [B,,F,] !>![F,,F,] z [F,,F,] | [B,,F,] z [B,,F,] [B,,F,] z [B,,F,] | %194
 [B,,F,] z [B,,F,] !>![F,,F,]2 [F,,F,] | [B,,F,] z [B,,F,] [B,,F,] z [B,,F,] | %196
 [B,,F,] z [B,,F,] [B,,F,] z [B,,F,] | F, z [A,B,] [A,B,] z [A,B,] | F, z [A,B,] [A,B,] z [A,B,] | %199
 B,, z [A,B,] [A,B,] z [A,B,] | F, z [A,B,] [A,B,] z [A,B,] | F, z [A,B,] [A,B,] z [A,B,] | %202
 F, z [A,B,] [A,B,] z [A,B,] | B,, z [A,B,] [A,B,] z [A,B,] | %204
 [E,B,] z .[E,B,]"^cres." .[E,B,] z .[E,B,] | .[D,=B,] z .[D,B,] .[D,B,] z .[D,B,] | %206
 .[C,C] z .[C,C] .[C,C] z .[C,C] | .[=B,,=B,] z .[B,,B,] .[B,,B,] z .[B,,B,] | !>![C,C]6 | %209
 .[A,,A,] z .[A,,A,] .[A,,A,] z .[A,,A,] | [_B,,_B,] z [B,,B,] [B,,B,] z [B,,B,] | %211
 [B,,B,] z [B,,,B,,] [B,,,B,,] z [B,,,B,,] | [E,,B,,] z [E,,B,,] [E,,B,,] z [E,,B,,] | %213
 [B,,,B,,] z [F,A,B,] [F,A,B,] z [F,A,B,] | [F,,F,] z [F,A,B,] [F,A,B,] z [F,A,B,] | %215
 [B,,,B,,] z [F,A,B,] [F,A,B,] z [F,A,B,] | [F,,F,] z [F,A,B,] [F,A,B,] z [F,A,B,] | %217
 [B,,,B,,] z [F,A,B,] [F,A,B,] z [F,A,B,] | [F,,F,] z [F,A,B,] [F,A,B,] z [F,A,B,] | %219
 [B,,,B,,] z [F,A,B,] [F,A,B,] z [F,A,B,] | [E,,E,] z [E,B,] [E,B,] z [E,B,] | %221
 [D,=B,] z [D,B,] [D,B,] z [D,B,] | [C,C] z [C,C] [C,C] z [C,C] | %223
 [=B,,=B,] z [B,,B,] [B,,B,] z [B,,B,] | !>![C,,C,]6 | %225
 !>![A,,,A,,] z [A,,,A,,] [A,,,A,,] z [A,,,A,,] | [_B,,,_B,,] z [B,,B,] [B,,B,] z [B,,B,] | %227
 [B,,B,] z [B,,,B,,] [B,,,B,,] z [B,,,B,,] | [E,,E,] z z !>![E,,,E,,] z z |] %229
V:4
 x6 | x6 | x6 | x6 | x6 | x6 | x6 | x6 | x6 | x6 | x6 | x6 | x6 | x6 | x6 | x6 | x6 | x6 | x6 | %19
 x6 | x6 | x6 | x6 | x6 | x6 | x6 | [G,B,] z [G,B,] [G,B,] z [G,B,] | [G,B,] x5 | x6 | x6 | x6 | %31
 x6 | x6 | x6 | x6 | [G,B,] z [G,B,] [G,B,] z [G,B,] | [G,B,] x5 | x6 | x6 | x6 | x6 | x6 | x6 | %43
 x6 | [G,B,] z [G,B,] [G,B,] z [G,B,] | x6 | x6 | x6 | x6 | x6 | x6 | x6 | x6 | %53
 [B,D] z [B,D] [B,D] z [B,D] | [B,D] x5 | x6 | x6 | x6 | x6 | x6 | x6 | x6 | x6 | x6 | x6 | x6 | %66
 x6 | x6 | x6 | x6 | x6 | x6 | x6 | x6 | x6 | x6 | x6 | x6 | x6 | x6 | x6 | x6 | x6 | x6 | x6 | %85
 x6 | x6 | x6 | x6 | x6 | x6 | x6 | x6 | x6 | x6 | x6 | x6 | [G,B,] z [G,B,] [G,B,] z [G,B,] | %98
 [G,B,] x5 | x6 | x6 | x6 | x6 | x6 | x6 | x6 | [G,B,] z [G,B,] [G,B,] z [G,B,] | [G,B,] x5 | x6 | %109
 x6 | x6 | x6 | x6 | x6 | x6 | [G,B,] z [G,B,] [G,B,] z [G,B,] | x6 | x6 | x6 | x6 | x6 | x6 | x6 | %123
 x6 | [B,D] z [B,D] [B,D] z [B,D] | [B,D] x5 | x6 | x6 | x6 | x6 | x6 | x6 | x6 | x6 | x6 | x6 | %136
 x6 | x6 | x6 | x6 | x6 | x6 | x6 | x6 | x6 | x6 | x6 | x6 | x6 | x6 | x6 | x6 | x6 | x6 | x6 | %155
 x6 | x6 | x6 | x6 | x6 | x6 | x6 | x6 | x6 | x6 | x6 | x6 | x6 | [G,B,] z [G,B,] [G,B,] z [G,B,] | %169
 [G,B,] x5 | x6 | x6 | x6 | x6 | x6 | x6 | x6 | [G,B,] z [G,B,] [G,B,] z [G,B,] | [G,B,] x5 | x6 | %180
 x6 | x6 | x6 | x6 | x6 | x6 | [G,B,] z [G,B,] [G,B,] z [G,B,] | x6 | x6 | x6 | x6 | x6 | x6 | x6 | %194
 x6 | [B,D] z [B,D] [B,D] z [B,D] | [B,D] x5 | x6 | x6 | x6 | x6 | x6 | x6 | x6 | x6 | x6 | x6 | %207
 x6 | x6 | x6 | x6 | x6 | x6 | x6 | x6 | x6 | x6 | x6 | x6 | x6 | x6 | x6 | x6 | x6 | x6 | x6 | %226
 x6 | x6 | x6 |] %229

